apps/site/public/mcp/logos/warp.svg

<svg xmlns="http://www.w3.org/2000/svg" fill="none" viewBox="0 0 48 48" height="48" width="48">
<g clip-path="url(#clip0_6089_38531)">
<path fill="white" d="M24.2516 6.09329H40.8725C43.563 6.09329 45.7442 8.34711 45.7442 11.1273V30.6712C45.7442 33.4515 43.563 35.7053 40.8725 35.7053H17.0874L24.2516 6.09329Z"></path>
<path fill="white" d="M19.9342 11.7033H6.54499C3.87737 11.7033 1.71484 13.9571 1.71484 16.7373V36.2812C1.71484 39.0615 3.87737 41.3153 6.54499 41.3153H23.0242L23.6851 38.5604H13.4919L19.9342 11.7033Z"></path>
</g>
<defs>
<clipPath id="clip0_6089_38531">
<rect transform="translate(1.71484 5.68645)" fill="white" height="36.6271" width="44.5703"></rect>
</clipPath>
</defs>
</svg>

<svg xmlns="http://www.w3.org/2000/svg" width="48" height="48" fill="none" viewBox="0 0 48 48"><g fill="#fff" clip-path="url(#a)"><path d="M24.252 6.093h16.62c2.691 0 4.872 2.254 4.872 5.034v19.544c0 2.78-2.181 5.034-4.871 5.034H17.087z"/><path d="M19.934 11.703H6.545c-2.668 0-4.83 2.254-4.83 5.034v19.544c0 2.78 2.162 5.034 4.83 5.034h16.48l.66-2.755H13.492z"/></g><defs><clipPath id="a"><path fill="#fff" d="M1.715 5.686h44.57v36.627H1.715z"/></clipPath></defs></svg>
